X: 101
T: Bye Bye Blackbird
M:4/4
R:reel
L:1/8
Z:Alf Warnock - alf0@rogers.com
K:A
"A"c2c2 c2c2|"D"d2c2 "A"c4|"Bm7"c2B2 "E9"B4|"A^7"B2A2 "A6"A4|
"A"A8|"B7"B8|"Bm7"A4 "E7"G4-|G8|
"Bm"d2d2 d2d2|e2d2 d4|d2c2 c4|c2B2 B4|
"Bm7"B8|"E7"c8|"A^7"B4 A4-|A8|
"A7"A2e2 e2e2|e2d2 c2B2|"C#m7b5"B8|"F#7b9"^A8|
"Bm7"F2d2 d2d2|d2c2 B2A2|"Dm"A8|"E7"G8|
"A"c2c2 c2c2|"D"d2c2 "A"c4|"C#m7b5"c2B2 B4|"F#7b9"B2^A2 ^A4|
"Bm"B4 d4-|d4 G4|"A"A8-|A8|

